X:1
T:Title
%%score 1 { ( 2 5 ) | ( 3 4 ) }
L:1/8
M:4/4
K:Bb
V:1 treble nm="Akkordion"
V:2 treble nm="Grand Piano"
V:5 treble 
V:3 bass 
V:4 bass 
V:1
 z4 z2[Q:1/4=100] B,2 | C2 D2 F2 G2 | A3 A G2 F2 | D2 EF D2 C2 |[M:3/4] B,6 |[M:1/4] B,2 | %6
[M:4/4] E2 F2 G2 B2 | G3 F F2 F2 | F2 GA c2 A2 |[M:7/8] F-F-F- F- F3 |[M:1/4] z2 |[M:4/4] z8 | z8 | %13
 z8 |[M:3/4] z6 |[M:1/4] z2 |[M:4/4] z8 |[M:9/8] z9 |[M:4/4] z8 |[M:3/4] z6 |] %20
V:2
 z4 z2 [DF]2 | [DF]2 F2 F2 G2 | A2 DA G2 F2 | F2 [B,DF]2 [A,DF]2 [A,EF]2 | %4
[M:3/4] [B,DF]2 [DF]2 [DF]2 |[M:1/4] [B,DF]2 |[M:4/4] [B,EG]2 [B,EG]2 [B,EG]2 [EG]2 | %7
 [B,EG]2 ED D2 F2 | F2 =EF [Ec]2 [EA]2 |[M:7/8] F-F-F- F- F3 |[M:1/4] F2 | %11
[M:4/4] G2 A2 [DB]2 [Fd]2 | [Fd]2 [Ec]2 [DB]2 [FB]2 | [Gc]2 [GB]2 [Ge]2 [GB]2 |[M:3/4] [^Fd]6 | %15
[M:1/4] d2 |[M:4/4] d2 e2 [EG]2 AB |[M:9/8] d2 c- c B2- B B2 |[M:4/4] [Gf]2 [EG]2 [Fd]2 [Ec]2 | %19
[M:3/4] [DB]6 |] %20
V:3
 z4 z2 [B,,B,]2 | [C,B,]2 [D,B,D]2 [F,B,D]2 [G,B,D]2 | [B,D]2 z2 z4 | [D,B,D]2 E,F, D,2 C,2 | %4
[M:3/4] z2 B,2 B,2 |[M:1/4] B,,2 |[M:4/4] E,2 F,2 G,2 B,2 | z2 B,[F,B,] [F,B,]2 [G,B,_D]2 | %8
 [C,A,C]2 [C,G,C][C,A,C] [C,G,]2 [C,C]2 |[M:7/8] [A,C]2 B,2 C3 |[M:1/4] [F,A,]2 | %11
[M:4/4] [F,B,=E]2 [F,C_E]2 [B,,B,]2 [D,B,]2 | [F,B,]2 [F,A,]2 [B,,B,]2 [D,B,]2 | %13
 [E,B,]2 [E,E]2 [E,B,]2 [E,B,]2 |[M:3/4] [D,A,]6 |[M:1/4][K:treble] [G,=B,G]2 | %16
[M:4/4] [G,=B,F]2 [G,CG]2[K:bass] [C,C]2 [C,G,]2 | %17
[M:9/8] [F,B,F]2 [^F,A,D]- [F,A,D] [G,B,D]2- [G,B,D] [G,B,D]2 | %18
[M:4/4] [C,C]2 [C,C]2 [F,B,]2 [F,A,]2 |[M:3/4] [B,,B,]6 |] %20
V:4
 x8 | x8 | A,2- [A,B,][A,B,D] [G,B,D]2 [F,B,D]2 | x8 |[M:3/4] B,,6 |[M:1/4] x2 |[M:4/4] x8 | %7
 G,4 z4 | x8 |[M:7/8] F,-F,-F,- F,- F,3 |[M:1/4] x2 |[M:4/4] x8 | x8 | x8 |[M:3/4] x6 | %15
[M:1/4][K:treble] x2 |[M:4/4] x4[K:bass] x4 |[M:9/8] x9 |[M:4/4] x8 |[M:3/4] x6 |] %20
V:5
 x8 | x8 | x8 | x8 |[M:3/4] x6 |[M:1/4] x2 |[M:4/4] x8 | x8 | x8 |[M:7/8] z2 D2 E3 |[M:1/4] x2 | %11
[M:4/4] x8 | x8 | x8 |[M:3/4] x6 |[M:1/4] x2 |[M:4/4] z4 z2 E2 |[M:9/8] x9 |[M:4/4] x8 | %19
[M:3/4] x6 |] %20

